X: 10885
T: Drops Of Brandy, The
R: slip jig
M: 9/8
K: Dmajor
|:e2d cAc cAc|e2 d cAc d2B|e2d cAc cAc|dcd B2c dcB:|
|:Ace aec aec|Ace aec dcB|Ace aec aec|dcd B2c dcB:|
|:A2a aec aec|A2a aec dcB|A2a aec aec|dcd B2c dcB:|

